symbolic/22x22/apps/somiibo.svg

<svg xmlns="http://www.w3.org/2000/svg" width="22" height="22" version="1"><circle style="opacity:.2" cx="11" cy="11.5" r="10"/><circle style="fill:#44a2f8" cx="11" cy="11" r="10"/><path style="opacity:.2" d="M10.5 4.5A1.5 1.5 0 0 0 9 6a1.5 1.5 0 0 0 1 1.412v1.19A5 5 0 0 0 6 13.5a5 5 0 0 0 5 5 5 5 0 0 0 5-5 5 5 0 0 0-2.434-4.283l.604-.754a1.5 1.5 0 0 0 .33.037A1.5 1.5 0 0 0 16 7a1.5 1.5 0 0 0-1.5-1.5A1.5 1.5 0 0 0 13 7a1.5 1.5 0 0 0 .318.924l-.683.857A5 5 0 0 0 11 8.5V7.412A1.5 1.5 0 0 0 12 6a1.5 1.5 0 0 0-1.5-1.5zm.5 6a3 3 0 0 1 3 3 3 3 0 0 1-3 3 3 3 0 0 1-3-3 3 3 0 0 1 3-3zm0 1a2 2 0 0 0-2 2 2 2 0 0 0 2 2 2 2 0 0 0 2-2 2 2 0 0 0-.594-1.42 1 1 0 0 1 .094.42 1 1 0 0 1-1 1 1 1 0 0 1-1-1 1 1 0 0 1 .79-.977A2 2 0 0 0 11 11.5z"/><path style="opacity:.2;fill:#fff" d="M11 1A10 10 0 0 0 1 11a10 10 0 0 0 .01.291A10 10 0 0 1 11 1.5a10 10 0 0 1 9.99 9.709A10 10 0 0 0 21 11 10 10 0 0 0 11 1z"/><path style="fill:#fff" d="M10.5 4A1.5 1.5 0 0 0 9 5.5a1.5 1.5 0 0 0 1 1.412v1.19A5 5 0 0 0 6 13a5 5 0 0 0 5 5 5 5 0 0 0 5-5 5 5 0 0 0-2.434-4.283l.604-.754A1.5 1.5 0 0 0 14.5 8 1.5 1.5 0 0 0 16 6.5 1.5 1.5 0 0 0 14.5 5 1.5 1.5 0 0 0 13 6.5a1.5 1.5 0 0 0 .32.926l-.685.855A5 5 0 0 0 11 8V6.912A1.5 1.5 0 0 0 12 5.5 1.5 1.5 0 0 0 10.5 4zm.5 6a3 3 0 0 1 3 3 3 3 0 0 1-3 3 3 3 0 0 1-3-3 3 3 0 0 1 3-3zm0 1a2 2 0 0 0-2 2 2 2 0 0 0 2 2 2 2 0 0 0 2-2 2 2 0 0 0-.594-1.42 1 1 0 0 1 .094.42 1 1 0 0 1-1 1 1 1 0 0 1-1-1 1 1 0 0 1 .79-.977A2 2 0 0 0 11 11z"/></svg>

<svg xmlns="http://www.w3.org/2000/svg" width="22" height="22" version="1">
 <circle style="opacity:0.2" cx="11" cy="11.5" r="10"/>
 <circle style="fill:#44a2f8" cx="11" cy="11" r="10"/>
 <path style="opacity:0.2" d="M 10.5,4.5 A 1.5,1.5 0 0 0 9,6 1.5,1.5 0 0 0 10,7.4121094 V 8.6015625 A 5,5 0 0 0 6,13.5 a 5,5 0 0 0 5,5 5,5 0 0 0 5,-5 5,5 0 0 0 -2.433594,-4.283203 L 14.169922,8.4628906 A 1.5,1.5 0 0 0 14.5,8.5 1.5,1.5 0 0 0 16,7 1.5,1.5 0 0 0 14.5,5.5 1.5,1.5 0 0 0 13,7 1.5,1.5 0 0 0 13.318359,7.9238281 L 12.634766,8.78125 A 5,5 0 0 0 11,8.5 V 7.4121094 A 1.5,1.5 0 0 0 12,6 1.5,1.5 0 0 0 10.5,4.5 Z m 0.5,6 a 3,3 0 0 1 3,3 3,3 0 0 1 -3,3 3,3 0 0 1 -3,-3 3,3 0 0 1 3,-3 z m 0,1 a 2,2 0 0 0 -2,2 2,2 0 0 0 2,2 2,2 0 0 0 2,-2 A 2,2 0 0 0 12.40625,12.080078 1,1 0 0 1 12.5,12.5 a 1,1 0 0 1 -1,1 1,1 0 0 1 -1,-1 1,1 0 0 1 0.789062,-0.976562 A 2,2 0 0 0 11,11.5 Z"/>
 <path style="opacity:0.2;fill:#ffffff" d="M 11,1 A 10,10 0 0 0 1,11 10,10 0 0 0 1.01075,11.291 10,10 0 0 1 11,1.5 10,10 0 0 1 20.9895,11.209 10,10 0 0 0 21,11 10,10 0 0 0 11,1 Z"/>
 <path style="fill:#ffffff" d="M 10.5 4 A 1.5 1.5 0 0 0 9 5.5 A 1.5 1.5 0 0 0 10 6.9121094 L 10 8.1015625 A 5 5 0 0 0 6 13 A 5 5 0 0 0 11 18 A 5 5 0 0 0 16 13 A 5 5 0 0 0 13.566406 8.7167969 L 14.169922 7.9628906 A 1.5 1.5 0 0 0 14.5 8 A 1.5 1.5 0 0 0 16 6.5 A 1.5 1.5 0 0 0 14.5 5 A 1.5 1.5 0 0 0 13 6.5 A 1.5 1.5 0 0 0 13.320312 7.4257812 L 12.634766 8.28125 A 5 5 0 0 0 11 8 L 11 6.9121094 A 1.5 1.5 0 0 0 12 5.5 A 1.5 1.5 0 0 0 10.5 4 z M 11 10 A 3 3 0 0 1 14 13 A 3 3 0 0 1 11 16 A 3 3 0 0 1 8 13 A 3 3 0 0 1 11 10 z M 11 11 A 2 2 0 0 0 9 13 A 2 2 0 0 0 11 15 A 2 2 0 0 0 13 13 A 2 2 0 0 0 12.40625 11.580078 A 1 1 0 0 1 12.5 12 A 1 1 0 0 1 11.5 13 A 1 1 0 0 1 10.5 12 A 1 1 0 0 1 11.289062 11.023438 A 2 2 0 0 0 11 11 z"/>
</svg>
